!!!OTL: Hongxiuquan qiyi
!!!ARE: Asia, China,ÿShandong Huimin
!! III, 346
!!!SCT: C1767
!!!YEM: Copyright 1995, estate of Helmut Schaffrath.
**kern
*ICvox
*Ivox
*M2/4
*k[f#]
*G:
{8d
16d
16e
8g
8g
=1
8dd
8dd
8b
8a
=2
16dd
16dd
16dd
16ee
8b
8a
=3
8g
16e
16g
4d}
=4
{16g
16e
8g
16d
16e
8d}
=5
{16g
16e
16g
16g
16d
16e
8d}
=6
{16g
8g
16b
4a}
=7
{16dd
16dd
16dd
16b
8dd
16b
16a
=8
16d
8g
16g
16g
8g
16e
=9
2d}
==
!!!AGN: Xiaodiao, Yangge diao
!!!AMT: simple duple
!!!AIN: vox
!!!EED: Helmut Schaffrath
!!!EEV: 1.0
*-
